static/images/mobile/copyright/wikipedia-wordmark-pnb.svg

<?xml version="1.0" encoding="UTF-8"?>
<svg width="60px" height="27px" viewBox="0 0 60 27" version="1.1" xmlns="http://www.w3.org/2000/svg" xmlns:xlink="http://www.w3.org/1999/xlink">
    <title>pnb-wordmark</title>
    <g id="Page-1" stroke="none" stroke-width="1" fill="none" fill-rule="evenodd">
        <path d="M57.179503,12.3481257 C58.3296247,13.7267092 58.983464,14.8925928 59.1410226,15.8457773 L59.1410226,16.3184328 L59.1410226,16.3184328 C59.1410226,18.4296275 59.038608,19.7215509 58.8337973,20.1942082 C57.9357451,22.1163373 57.0692116,23.4515871 56.2341919,24.1999625 C54.4617312,25.641556 53.0831534,26.5750494 52.0984552,27.0004478 C52.1457207,26.4096208 52.2953958,25.6218616 52.5474788,24.6371702 C54.6901805,23.5579341 56.2538813,21.7894176 57.2385845,19.3316106 C57.3094769,18.8353231 57.2425187,18.4808323 57.0377063,18.2681365 L56.6832138,18.303586 C56.4468827,18.3981171 56.1790446,18.4453827 55.8796994,18.4453827 C55.4227957,18.4453827 54.9422634,18.3311572 54.4381009,18.1027062 C54.4774863,17.1967856 54.8241004,16.2120874 55.4779431,15.1486099 L57.179503,12.3481257 Z M30.3917503,22.5220362 L30.4118657,22.5423161 C30.5124458,22.6437154 30.9902123,23.1253627 31.8451665,23.9872684 L30.3326688,25.5706636 L28.9619678,24.1172491 L30.3917503,22.5220362 Z M38.2614658,20.3478208 C38.2614652,20.3478208 38.2681701,20.3545808 38.2815807,20.3681008 L38.3871905,20.4745707 C38.5883537,20.6773706 39.0309169,21.1235307 39.7148803,21.8130529 L38.2023826,23.3964481 L36.8316815,21.9430336 L38.2614658,20.3478208 Z M25.7833597,20.3478208 C25.7833591,20.3478208 25.7900641,20.3545808 25.8034746,20.3681008 L25.9090845,20.4745707 C26.1102477,20.6773706 26.5528109,21.1235307 27.2367742,21.8130529 L25.7242765,23.3964481 L24.3535755,21.9430336 L25.7833597,20.3478208 Z M22.5929344,20.3360048 C22.5929329,20.3360048 23.0774039,20.8244122 24.0463502,21.801237 L22.5338524,23.3846322 L21.1631513,21.931216 L22.5929344,20.3360048 Z M35.0710401,20.3360048 L35.1163014,20.3816346 C35.1263596,20.3917746 35.1380941,20.4036046 35.1515051,20.4171245 L35.2520872,20.5185243 C35.4733681,20.7416039 35.897491,21.1691739 36.5244563,21.801237 L35.0119586,23.3846322 L33.6412575,21.931216 L35.0710401,20.3360048 Z M32.0105951,19.8987972 C32.0105917,19.8987972 32.4950632,20.3872062 33.4640113,21.3640293 L31.9515136,22.9474262 L30.5808125,21.49401 L32.0105951,19.8987972 Z M28.8201711,19.8869812 L28.8251999,19.8920512 L28.8654324,19.9326112 L28.881777,19.9490886 L28.881777,19.9490886 L29.0012182,20.0695011 C29.2224991,20.2925811 29.646622,20.7201514 30.2735873,21.3522134 L28.7610896,22.9356102 L27.3903885,21.4821941 L28.8201711,19.8869812 Z M50.6214071,2.85956596 C50.794704,2.85956596 50.8813684,2.95411304 50.8813684,3.14315928 C50.8813684,3.37950251 50.7238048,3.80883086 50.4087129,4.43114552 L49.8060767,5.63641713 C48.7898581,6.22724931 47.9390798,6.68021044 47.2537368,6.99530186 C46.3556846,7.45221364 44.4099218,8.31874794 41.4164402,9.59490728 C41.7788077,10.8395749 42.3341784,11.9384979 43.0825522,12.8916795 C44.240554,14.4041821 45.0086172,15.2943492 45.3867466,15.562184 C45.3803002,15.6459736 45.3691665,15.7517355 45.3533456,15.8794699 L45.3154543,16.1642352 C45.2713135,16.4782971 45.2084242,16.8802489 45.1267869,17.3700909 C43.9057559,18.0633191 42.7162404,18.5753634 41.5582368,18.9062206 L38.8759179,18.9062206 C38.7813818,18.9062206 38.5332364,18.8077519 38.1314851,18.6108113 C37.5485399,18.303586 37.1822314,17.9924216 37.0325614,17.6773162 L36.8316815,17.901828 C36.8001695,18.0515031 36.5835344,18.2681365 36.1817814,18.5517298 C35.8272873,18.7880575 35.6342858,18.9062206 35.6027771,18.9062206 L32.5895994,18.9062206 C32.4950632,18.9062206 32.2469178,18.8077519 31.8451665,18.6108113 C31.2622213,18.303586 30.8959129,17.9924216 30.7462428,17.6773162 L30.545363,17.901828 C30.5138509,18.0515031 30.2972159,18.2681365 29.8954629,18.5517298 C29.5409687,18.7880575 29.3479673,18.9062206 29.3164586,18.9062206 L26.3978119,18.9062206 C26.3032758,18.9062206 26.0551304,18.8077519 25.653379,18.6108113 C25.0704339,18.303586 24.7041254,17.9924216 24.5544554,17.6773162 L24.3535755,17.901828 C24.3220634,18.0515031 24.1054284,18.2681365 23.7036754,18.5517298 C23.3491812,18.7880575 23.1561798,18.9062206 23.1246711,18.9062206 L20.5250664,18.9062206 C19.8633392,18.9062206 19.2961532,18.5714242 18.8235064,17.901828 C18.6265586,17.6339915 18.3390267,17.0549889 17.9609102,16.1648185 C17.3149407,17.4094797 16.7989589,18.0672583 16.4129632,18.1381558 C16.0427109,18.2169334 14.9910534,18.5359746 13.2579877,19.0952828 C12.3363073,19.3631209 11.6194473,19.7924501 11.107405,20.3832704 C10.981363,20.241472 10.9183428,20.0405939 10.9183428,19.7806342 C10.9183428,19.5915703 10.9577302,19.3237338 11.0365067,18.9771197 C11.1467923,18.5596082 11.2098128,18.2838916 11.2255689,18.1499717 C12.1787557,17.346459 13.1240659,16.8856211 14.0615021,16.7674547 C15.8260773,16.4917415 16.9643881,16.1372507 17.4764382,15.7039806 C17.5158191,14.4435692 16.9958985,12.4584185 15.9166749,9.74852025 L16.921068,7.72791794 C17.1022459,7.71217384 17.3503898,8.20846165 17.6655004,9.21678286 C17.9648415,10.2093682 18.3705371,11.9306203 18.8825885,14.3805451 C19.2764592,15.6330848 19.8200125,16.4878023 20.5132501,16.944701 L22.5574851,16.944701 C22.7465458,16.9447026 23.160119,16.00727 23.7982065,14.1323997 C24.6017175,14.0142417 25.0192291,14.0418129 25.0507428,14.2151149 C25.1846577,14.7586729 25.3697807,15.3337363 25.6061135,15.9403084 C25.8503146,16.5468855 26.0905799,16.8816819 26.3269128,16.944701 L28.7492719,16.944701 C28.9383325,16.9447026 29.3519065,16.00727 29.989994,14.1323997 C30.793505,14.0142417 31.2110165,14.0418129 31.2425303,14.2151149 C31.3764451,14.7586729 31.5615681,15.3337363 31.7979009,15.9403084 C32.0421021,16.5468855 32.2823674,16.8816819 32.5187002,16.944701 L35.0355905,16.944701 C35.224651,16.9447026 35.638225,16.00727 36.2763125,14.1323997 C37.0798236,14.0142417 37.4973351,14.0418129 37.5288488,14.2151149 C37.6627637,14.7586729 37.8478867,15.3337363 38.0842195,15.9403084 C38.3284207,16.5468855 38.568686,16.8816819 38.8050188,16.944701 L40.1993534,16.944701 C41.105274,16.8659267 41.9206044,16.5468855 42.6453446,15.9875739 C42.511423,15.6252081 42.0781562,14.9359192 41.3455427,13.9197056 C40.6759465,12.9901554 40.2387406,12.2260298 40.0339232,11.6273261 C40.0496783,10.9656162 40.2820669,10.2172456 40.7310905,9.3822123 C41.2510099,8.27935998 41.5661136,7.55068346 41.6764016,7.19618038 C42.7083636,6.95198695 44.2681252,6.34147432 46.3556913,5.36464028 C48.6244295,4.33269016 50.0463336,3.49766622 50.6214071,2.85956596 Z M16.2593503,7.10542736e-15 C16.6374685,0.417530872 16.8265305,0.957145349 16.8265369,1.61884511 C16.8265305,1.79216928 16.8147141,2.04819077 16.7910877,2.38691043 C16.7674487,2.71778544 16.7556322,2.95805175 16.7556386,3.10771003 C16.7556322,3.54099307 16.8068365,3.91911699 16.9092515,4.24208331 C17.1534502,4.05303605 17.440982,3.78125937 17.771848,3.4267526 C17.953025,3.2534612 18.0987604,3.16680769 18.2090543,3.16679206 C18.2720673,3.16680769 18.7210895,3.40313529 19.5561225,3.87577536 C19.3591738,4.78171257 18.7565386,5.35677613 17.7482152,5.60096805 C17.4331045,5.71914504 16.8462244,5.84518634 15.9875733,5.97909247 C14.7586647,5.72702263 14.1442167,5.44736836 14.1442167,5.14012882 C14.1442167,5.11650982 14.1481519,5.09681593 14.1560332,5.08104696 C14.258438,5.11257111 14.7507871,5.12832629 15.6330816,5.12831251 C15.7433627,5.04167278 15.7985057,4.70293665 15.798511,4.11210312 C15.7985057,3.47403362 15.794567,2.84382674 15.7866947,2.221481 C15.7866894,1.59129093 15.7354851,1.19741166 15.6330816,1.03984217 C16.2081401,0.606592916 16.4050798,0.259979196 16.223901,7.10542736e-15 L16.2593503,7.10542736e-15 Z M5.69549915,16.944701 C6.02635621,16.9447026 6.43992938,16.6926197 6.93621992,16.1884521 C6.67625691,15.7866974 6.54627677,15.5424929 6.54627911,15.4558352 C6.54627677,14.4790188 6.75897154,13.7621588 7.18436407,13.3052532 C7.41281106,13.2895036 7.5309748,13.2973793 7.53885572,13.328886 C7.74366959,13.9669762 8.16512035,14.7389785 8.80320919,15.6448974 C8.23601868,17.8191145 7.17648353,18.9062206 5.62460082,18.9062206 L3.99393924,18.9062206 C2.6941335,18.9062206 1.84335439,18.7210976 1.44159937,18.3508516 C0.685349512,17.6182364 0.307225423,16.5547623 0.307226095,15.1604259 L0.307226095,8.77957641 L0.307226095,8.77957641 C0.307225423,5.80973726 0.204816893,4.07272995 0,3.56854926 L1.78427455,2.25693008 C2.09937588,3.05258285 2.29237664,4.26179199 2.36327766,5.88456136 C2.48143868,7.51523437 2.50507146,8.69687203 2.43417599,9.42947785 C2.38690774,10.1621027 2.36721368,11.2964748 2.37509396,12.8325977 C2.41447923,14.6208155 2.50507146,15.6842896 2.64687097,16.0230218 C2.82017481,16.4641704 2.98954296,16.7123141 3.15497559,16.7674547 C3.56460652,16.8856211 3.84426079,16.9447026 3.99393924,16.944701 L5.69549915,16.944701 Z M8.90955676,20.1942082 C8.90955206,20.1942082 9.39402356,20.6826172 10.3629724,21.6594403 L8.85047474,23.2428355 L7.47977378,21.7894193 L8.90955676,20.1942082 M5.71913193,20.1823905 C5.71913042,20.1823905 6.20360186,20.6707995 7.17254769,21.6476227 L5.66004999,23.2310195 L4.28934886,21.7776034 L5.71913193,20.1823905" id="pnb-wordmark" fill="#000000" fill-rule="nonzero"></path>
    </g>
</svg>

<svg xmlns="http://www.w3.org/2000/svg" width="60" height="27"><path fill="#000" fill-rule="nonzero" d="M57.18 12.348c1.15 1.379 1.803 2.545 1.961 3.498v.472c0 2.112-.102 3.404-.307 3.876-.898 1.922-1.765 3.258-2.6 4.006-1.772 1.442-3.15 2.375-4.136 2.8.048-.59.197-1.378.45-2.363 2.142-1.08 3.706-2.848 4.69-5.305.071-.497.005-.851-.2-1.064l-.355.036a2.149 2.149 0 0 1-.803.141c-.457 0-.938-.114-1.442-.342.04-.906.386-1.89 1.04-2.954l1.702-2.8ZM30.392 22.522l.02.02 1.433 1.445-1.512 1.584-1.371-1.454 1.43-1.595Zm7.87-2.174.02.02.105.107 1.328 1.338-1.513 1.583-1.37-1.453 1.43-1.595Zm-12.479 0 .02.02.106.107 1.328 1.338-1.513 1.583-1.37-1.453 1.43-1.595Zm-3.19-.012 1.453 1.465-1.512 1.584-1.37-1.454 1.429-1.595Zm12.478 0 .045.046.036.035.1.102 1.272 1.282-1.512 1.584-1.37-1.454 1.429-1.595Zm-3.06-.437 1.453 1.465-1.512 1.583-1.371-1.453 1.43-1.595Zm-3.19-.012.004.005.04.04.017.017.12.12c.22.224.645.651 1.272 1.283l-1.513 1.584-1.37-1.454 1.43-1.595ZM50.62 2.86c.174 0 .26.094.26.283 0 .237-.157.666-.472 1.288l-.603 1.205c-1.016.591-1.867 1.044-2.552 1.36-.898.456-2.844 1.323-5.838 2.599.363 1.245.918 2.343 1.667 3.297 1.158 1.512 1.926 2.402 2.304 2.67-.007.084-.018.19-.034.317l-.038.285a49.68 49.68 0 0 1-.188 1.206c-1.221.693-2.41 1.205-3.569 1.536h-2.682c-.095 0-.343-.098-.745-.295-.582-.307-.949-.619-1.098-.934l-.201.225c-.032.15-.248.366-.65.65-.355.236-.548.354-.58.354H32.59c-.095 0-.343-.098-.745-.295-.583-.307-.95-.619-1.099-.934l-.2.225c-.032.15-.249.366-.65.65-.355.236-.548.354-.58.354h-2.918c-.095 0-.343-.098-.745-.295-.583-.307-.949-.619-1.099-.934l-.2.225c-.032.15-.249.366-.65.65-.355.236-.548.354-.58.354h-2.599c-.662 0-1.229-.335-1.701-1.004-.197-.268-.485-.847-.863-1.737-.646 1.244-1.162 1.902-1.548 1.973-.37.079-1.422.398-3.155.957-.922.268-1.639.697-2.15 1.288-.127-.142-.19-.342-.19-.602 0-.19.04-.457.119-.804.11-.417.173-.693.189-.827.953-.804 1.898-1.264 2.836-1.383 1.764-.275 2.902-.63 3.414-1.063.04-1.26-.48-3.246-1.56-5.955l1.005-2.021c.181-.016.43.48.745 1.489.299.992.705 2.714 1.217 5.164.393 1.252.937 2.107 1.63 2.564h2.044c.19 0 .603-.938 1.241-2.813.804-.118 1.221-.09 1.253.083a14 14 0 0 0 .555 1.725c.244.607.485.942.72 1.005h2.423c.19 0 .603-.938 1.241-2.813.804-.118 1.221-.09 1.253.083a14 14 0 0 0 .555 1.725c.244.607.484.942.72 1.005h2.518c.189 0 .602-.938 1.24-2.813.804-.118 1.221-.09 1.253.083a14 14 0 0 0 .555 1.725c.244.607.485.942.721 1.005h1.394a4.574 4.574 0 0 0 2.446-.957c-.134-.363-.567-1.052-1.3-2.068-.67-.93-1.106-1.694-1.311-2.293.016-.661.248-1.41.697-2.245.52-1.103.835-1.831.945-2.186 1.032-.244 2.592-.855 4.68-1.831 2.268-1.032 3.69-1.867 4.265-2.505ZM16.26 0c.378.418.568.957.568 1.619 0 .173-.012.43-.036.768-.024.33-.035.571-.035.72 0 .434.05.812.153 1.135a7.65 7.65 0 0 0 .863-.815c.181-.174.327-.26.437-.26.063 0 .512.236 1.347.709-.197.906-.8 1.48-1.808 1.725-.315.118-.902.244-1.76.378-1.23-.252-1.844-.532-1.844-.839 0-.023.004-.043.012-.059.102.032.595.047 1.477.047.11-.086.166-.425.166-1.016 0-.638-.004-1.268-.012-1.89 0-.63-.052-1.025-.154-1.182.575-.433.772-.78.59-1.04h.036ZM5.695 16.945c.331 0 .745-.252 1.241-.757-.26-.401-.39-.646-.39-.732 0-.977.213-1.694.638-2.15.229-.016.347-.009.355.023.205.638.626 1.41 1.264 2.316-.567 2.174-1.627 3.261-3.178 3.261H3.994c-1.3 0-2.15-.185-2.552-.555-.757-.733-1.135-1.796-1.135-3.19V8.78C.307 5.81.205 4.073 0 3.569l1.784-1.312c.315.796.508 2.005.58 3.628.117 1.63.141 2.812.07 3.544-.047.733-.067 1.867-.059 3.404.04 1.788.13 2.851.272 3.19.173.441.343.69.508.744.41.119.69.178.839.178h1.701Zm3.215 3.25 1.453 1.464-1.513 1.584-1.37-1.454 1.43-1.595m-3.19-.012 1.453 1.466L5.66 23.23l-1.37-1.453 1.43-1.596"/></svg>
